images_elementary_svg/cmd/sc_thesaurusdialog.svg

<?xml version="1.0" encoding="UTF-8" standalone="no"?>
<svg
   xmlns:dc="http://purl.org/dc/elements/1.1/"
   xmlns:cc="http://creativecommons.org/ns#"
   xmlns:rdf="http://www.w3.org/1999/02/22-rdf-syntax-ns#"
   xmlns:svg="http://www.w3.org/2000/svg"
   xmlns="http://www.w3.org/2000/svg"
   xmlns:xlink="http://www.w3.org/1999/xlink"
   xmlns:sodipodi="http://sodipodi.sourceforge.net/DTD/sodipodi-0.dtd"
   xmlns:inkscape="http://www.inkscape.org/namespaces/inkscape"
   viewBox="0 0 16 16"
   version="1.1"
   id="svg73"
   sodipodi:docname="sc_thesaurusdialog.svg"
   inkscape:version="0.92.3 (unknown)"
   inkscape:export-filename="/home/rizmut/Dokumen/Rizmut/Github/libreoffice-style-elementary/images_elementary/cmd/sc_thesaurusdialog.png"
   inkscape:export-xdpi="96"
   inkscape:export-ydpi="96">
  <metadata
     id="metadata79">
    <rdf:RDF>
      <cc:Work
         rdf:about="">
        <dc:format>image/svg+xml</dc:format>
        <dc:type
           rdf:resource="http://purl.org/dc/dcmitype/StillImage" />
      </cc:Work>
    </rdf:RDF>
  </metadata>
  <defs
     id="defs77">
    <linearGradient
       inkscape:collect="always"
       xlink:href="#linearGradient3309"
       id="linearGradient3893"
       gradientUnits="userSpaceOnUse"
       gradientTransform="matrix(0.5,0,0,0.5,-0.7790945,7.75)"
       x1="25"
       y1="-11.932203"
       x2="25"
       y2="8.4520321" />
    <linearGradient
       x1="63.9995"
       y1="3.1001"
       x2="63.9995"
       y2="122.8994"
       id="linearGradient3309"
       gradientUnits="userSpaceOnUse">
      <stop
         id="stop3311"
         style="stop-color:#f6f6f6;stop-opacity:1"
         offset="0" />
      <stop
         id="stop3313"
         style="stop-color:#e6e6e6;stop-opacity:1;"
         offset="1" />
    </linearGradient>
    <linearGradient
       inkscape:collect="always"
       xlink:href="#linearGradient3397"
       id="linearGradient3895"
       gradientUnits="userSpaceOnUse"
       gradientTransform="matrix(0.5,0,0,0.5,-0.7790945,7.75)"
       x1="21"
       y1="-10.033898"
       x2="21"
       y2="16.004715" />
    <linearGradient
       id="linearGradient3397">
      <stop
         id="stop3399"
         style="stop-color:#888888;stop-opacity:1;"
         offset="0" />
      <stop
         id="stop3401"
         style="stop-color:#626262;stop-opacity:1;"
         offset="1" />
    </linearGradient>
    <linearGradient
       inkscape:collect="always"
       xlink:href="#linearGradient5128"
       id="linearGradient3897"
       gradientUnits="userSpaceOnUse"
       gradientTransform="matrix(0.04807115,0,0,0.04807115,8.6734468,8.7215181)"
       x1="86.132919"
       y1="105.105"
       x2="84.63858"
       y2="20.895" />
    <linearGradient
       id="linearGradient5128">
      <stop
         id="stop5130"
         style="stop-color:#efefef;stop-opacity:1;"
         offset="0" />
      <stop
         id="stop5132"
         style="stop-color:#c9c9c9;stop-opacity:1;"
         offset="1" />
    </linearGradient>
  </defs>
  <sodipodi:namedview
     pagecolor="#ffffff"
     bordercolor="#666666"
     borderopacity="1"
     objecttolerance="10"
     gridtolerance="10"
     guidetolerance="10"
     inkscape:pageopacity="0"
     inkscape:pageshadow="2"
     inkscape:window-width="1366"
     inkscape:window-height="706"
     id="namedview75"
     showgrid="false"
     inkscape:zoom="14.75"
     inkscape:cx="8"
     inkscape:cy="8"
     inkscape:window-x="0"
     inkscape:window-y="0"
     inkscape:window-maximized="1"
     inkscape:current-layer="svg73" />
  <linearGradient
     id="a"
     gradientTransform="matrix(.23432741 0 0 .49377342 .835715 .144129)"
     gradientUnits="userSpaceOnUse"
     x1="5.212257"
     x2="54.887218"
     y1=".065302"
     y2=".065302">
    <stop
       offset="0"
       stop-color="#9b876c"
       id="stop2" />
    <stop
       offset=".92477626"
       stop-color="#9b876c"
       id="stop4" />
    <stop
       offset=".93581694"
       stop-color="#c2c2c2"
       id="stop6" />
    <stop
       offset="1"
       stop-color="#c2c2c2"
       id="stop8" />
  </linearGradient>
  <linearGradient
     id="b"
     gradientTransform="matrix(.40000003 0 0 .05128184 .7 .269238)"
     gradientUnits="userSpaceOnUse"
     x1="24"
     x2="24"
     xlink:href="#c"
     y1="44"
     y2="3.899002" />
  <linearGradient
     id="c">
    <stop
       offset="0"
       stop-color="#272727"
       id="stop12" />
    <stop
       offset="1"
       stop-color="#454545"
       id="stop14" />
  </linearGradient>
  <radialGradient
     id="d"
     cx="24.501682"
     cy="6.647596"
     gradientTransform="matrix(0 .86935046 -.93513174 0 14.716379 -18.896953)"
     gradientUnits="userSpaceOnUse"
     r="17.49832">
    <stop
       offset="0"
       stop-color="#ddcfbd"
       id="stop17" />
    <stop
       offset="1"
       stop-color="#856f50"
       id="stop19" />
  </radialGradient>
  <linearGradient
     id="e"
     gradientTransform="matrix(.20583462 0 0 .23348985 1.913292 1.358445)"
     gradientUnits="userSpaceOnUse"
     x1="32.901409"
     x2="32.901409"
     y1="4.648178"
     y2="61.481758">
    <stop
       offset="0"
       stop-color="#a79071"
       id="stop22" />
    <stop
       offset="1"
       stop-color="#6f5d45"
       id="stop24" />
  </linearGradient>
  <radialGradient
     id="f"
     cx="7.495683"
     cy="8.449767"
     gradientTransform="matrix(0 .77899668 -.98890282 -.00000001 18.656045 -3.144933)"
     gradientUnits="userSpaceOnUse"
     r="19.99999"
     xlink:href="#g" />
  <linearGradient
     id="g">
    <stop
       offset="0"
       stop-color="#5f5f5f"
       id="stop28" />
    <stop
       offset=".26238"
       stop-color="#4f4f4f"
       id="stop30" />
    <stop
       offset=".704952"
       stop-color="#3b3b3b"
       id="stop32" />
    <stop
       offset="1"
       stop-color="#2b2b2b"
       id="stop34" />
  </linearGradient>
  <linearGradient
     id="h"
     gradientTransform="matrix(.40000006 0 0 .33333333 .7 1)"
     gradientUnits="userSpaceOnUse"
     x1="24"
     x2="24"
     xlink:href="#c"
     y1="44"
     y2="3.899002" />
  <linearGradient
     id="i"
     gradientTransform="matrix(.24324326 0 0 .29729733 2.162163 1.864868)"
     gradientUnits="userSpaceOnUse"
     x1="23.99999"
     x2="23.99999"
     y1="7.181806"
     y2="40.818165">
    <stop
       offset="0"
       stop-color="#fff"
       id="stop38" />
    <stop
       offset="0"
       stop-color="#fff"
       stop-opacity=".235294"
       id="stop40" />
    <stop
       offset="1"
       stop-color="#fff"
       stop-opacity=".156863"
       id="stop42" />
    <stop
       offset="1"
       stop-color="#fff"
       stop-opacity=".392157"
       id="stop44" />
  </linearGradient>
  <radialGradient
     id="j"
     cx="10.90426"
     cy="8.449767"
     gradientTransform="matrix(0 .44731149 -.37711817 0 12.188272 .291436)"
     gradientUnits="userSpaceOnUse"
     r="19.99999"
     xlink:href="#g" />
  <linearGradient
     id="k"
     gradientTransform="matrix(.29830664 0 0 .31813165 1.84232 1.017944)"
     gradientUnits="userSpaceOnUse"
     x1="24"
     x2="24"
     xlink:href="#c"
     y1="44"
     y2="3.899002" />
  <g
     stroke-linejoin="round"
     id="g59">
    <path
       d="m13.491301 2.3043765c-.096631-.6550622-.036411-1.1709278-.089789-1.79567785h-9.8928133l.058388 1.98260255"
       fill="#e9e9e9"
       stroke="url(#a)"
       stroke-miterlimit="0"
       stroke-width="1.017398"
       id="path49" />
    <g
       stroke-linecap="round"
       id="g57">
      <path
         d="m4.4999999 2.4999999h-1.6000002c-.2283392 0-.3999998-.021171-.3999998-.048786v-1.3982157c0-.44396131.2236128-.55299826.5163576-.55299826h1.4836424"
         fill="#e9e9e9"
         stroke="url(#b)"
         id="path51" />
      <path
         d="m3.509521 2.50952h9.980959v12.980959h-9.980959z"
         fill="url(#d)"
         stroke="url(#e)"
         stroke-miterlimit="0"
         stroke-width="1.019041"
         id="path53" />
      <path
         d="m4.4999999 2.4999999v13.0000001h-1.5999999c-.2283394 0-.4000001-.137593-.4000001-.317074v-12.6829261z"
         fill="url(#f)"
         stroke="url(#h)"
         id="path55" />
    </g>
  </g>
  <path
     d="m3.5 3.5h9v11h-9z"
     fill="none"
     opacity=".5"
     stroke="url(#i)"
     stroke-linecap="round"
     id="path61" />
  <g
     id="g3888"
     transform="matrix(1.0513065,-0.43546544,0.43546544,1.0513065,-5.966936,4.2665013)">
    <path
       style="display:block;overflow:visible;visibility:visible;fill:url(#linearGradient3893);fill-opacity:1;fill-rule:nonzero;stroke:url(#linearGradient3895);stroke-width:0.52727503;stroke-linecap:butt;stroke-linejoin:round;stroke-miterlimit:4;stroke-dasharray:none;stroke-dashoffset:0;stroke-opacity:1;marker:none;enable-background:accumulate"
       id="path2426"
       d="M 11.21875,8 C 11.094542,8 11,8.0945411 11,8.21875 v 0.625 c -0.276951,0.0711 -0.525582,0.1859391 -0.765625,0.328125 L 9.78125,8.71875 c -0.087828,-0.087829 -0.224671,-0.087829 -0.3125,0 l -0.75,0.75 c -0.087829,0.087829 -0.087829,0.2246711 0,0.3125 l 0.453125,0.453125 C 9.0296894,10.474418 8.9148505,10.723048 8.84375,11 h -0.625 C 8.0945415,11 8,11.094541 8,11.21875 v 1.0625 C 8,12.405459 8.0945415,12.5 8.21875,12.5 h 0.625 c 0.071101,0.276951 0.1859395,0.525582 0.328125,0.765625 L 8.71875,13.71875 c -0.087829,0.08783 -0.087829,0.224671 0,0.3125 l 0.75,0.75 c 0.087829,0.08783 0.224671,0.08783 0.3125,0 l 0.453125,-0.453125 C 10.474418,14.470311 10.723049,14.58515 11,14.65625 v 0.625 C 11,15.405459 11.094542,15.5 11.21875,15.5 h 1.0625 C 12.405459,15.5 12.5,15.405459 12.5,15.28125 v -0.625 c 0.276951,-0.0711 0.525582,-0.185939 0.765625,-0.328125 l 0.453125,0.453125 c 0.08783,0.08783 0.224671,0.08783 0.3125,0 l 0.75,-0.75 c 0.08783,-0.08783 0.08783,-0.224671 0,-0.3125 L 14.328125,13.265625 C 14.470311,13.025582 14.58515,12.776951 14.65625,12.5 h 0.625 C 15.405459,12.5 15.5,12.405459 15.5,12.28125 v -1.0625 C 15.5,11.094541 15.405459,11 15.28125,11 h -0.625 c -0.0711,-0.276952 -0.185939,-0.525582 -0.328125,-0.765625 L 14.78125,9.78125 c 0.08783,-0.087829 0.08783,-0.224671 0,-0.3125 l -0.75,-0.75 c -0.08783,-0.087829 -0.224671,-0.087829 -0.3125,0 L 13.265625,9.171875 C 13.025582,9.0296891 12.776951,8.9148503 12.5,8.84375 v -0.625 C 12.5,8.0945411 12.405459,8 12.28125,8 Z M 11.75,10.75 c 0.552,0 1,0.448 1,1 0,0.552 -0.448,1 -1,1 -0.552,0 -1,-0.448 -1,-1 0,-0.552 0.448,-1 1,-1 z"
       inkscape:connector-curvature="0" />
    <path
       style="opacity:0.05;fill:#000000;fill-opacity:1;stroke:none"
       id="path3315"
       d="m 11.75,9.482558 c -1.250289,0 -2.2674419,1.017154 -2.2674419,2.267442 0,1.250289 1.0171529,2.267442 2.2674419,2.267442 1.250288,0 2.267442,-1.017153 2.267442,-2.267442 0,-1.250288 -1.017154,-2.267442 -2.267442,-2.267442 z m 0,1.046512 c 0.673954,0 1.22093,0.546977 1.22093,1.22093 0,0.673954 -0.546976,1.22093 -1.22093,1.22093 -0.673953,0 -1.22093,-0.546976 -1.22093,-1.22093 0,-0.673953 0.546977,-1.22093 1.22093,-1.22093 z"
       inkscape:connector-curvature="0" />
    <path
       style="fill:none;stroke:url(#linearGradient3897);stroke-width:0.87879175;stroke-miterlimit:4;stroke-dasharray:none"
       id="path28"
       d="m 11.75,9.75 c -1.1028,0 -2,0.8972 -2,2 0,1.1028 0.8972,2 2,2 1.1028,0 2,-0.8972 2,-2 0,-1.1028 -0.8972,-2 -2,-2 z"
       inkscape:connector-curvature="0" />
  </g>
</svg>

<svg xmlns="http://www.w3.org/2000/svg" xmlns:xlink="http://www.w3.org/1999/xlink" viewBox="0 0 16 16"><defs><linearGradient xlink:href="#a" id="m" gradientUnits="userSpaceOnUse" gradientTransform="matrix(.5 0 0 .5 -.8 7.8)" x1="25" y1="-11.932" x2="25" y2="8.452"/><linearGradient x1="63.999" y1="3.1" x2="63.999" y2="122.899" id="a" gradientUnits="userSpaceOnUse"><stop offset="0" stop-color="#f6f6f6"/><stop offset="1" stop-color="#e6e6e6"/></linearGradient><linearGradient xlink:href="#b" id="n" gradientUnits="userSpaceOnUse" gradientTransform="matrix(.5 0 0 .5 -.8 7.8)" x1="21" y1="-10.034" x2="21" y2="16.005"/><linearGradient id="b"><stop offset="0" stop-color="#888"/><stop offset="1" stop-color="#626262"/></linearGradient><linearGradient xlink:href="#c" id="o" gradientUnits="userSpaceOnUse" gradientTransform="matrix(0 0 0 0 8.7 8.7)" x1="86.133" y1="105.105" x2="84.639" y2="20.895"/><linearGradient id="c"><stop offset="0" stop-color="#efefef"/><stop offset="1" stop-color="#c9c9c9"/></linearGradient></defs><linearGradient id="f" gradientTransform="matrix(.2 0 0 .5 .8 .1)" gradientUnits="userSpaceOnUse" x1="5.212" x2="54.887" y1=".065" y2=".065"><stop offset="0" stop-color="#9b876c"/><stop offset=".925" stop-color="#9b876c"/><stop offset=".936" stop-color="#c2c2c2"/><stop offset="1" stop-color="#c2c2c2"/></linearGradient><linearGradient id="g" gradientTransform="matrix(.4 0 0 .1 .7 .3)" gradientUnits="userSpaceOnUse" x1="24" x2="24" xlink:href="#d" y1="44" y2="3.899"/><linearGradient id="d"><stop offset="0" stop-color="#272727"/><stop offset="1" stop-color="#454545"/></linearGradient><radialGradient id="h" cx="24.502" cy="6.648" gradientTransform="matrix(0 .9 -.9 0 14.7 -18.9)" gradientUnits="userSpaceOnUse" r="17.498"><stop offset="0" stop-color="#ddcfbd"/><stop offset="1" stop-color="#856f50"/></radialGradient><linearGradient id="i" gradientTransform="matrix(.2 0 0 .2 1.9 1.4)" gradientUnits="userSpaceOnUse" x1="32.901" x2="32.901" y1="4.648" y2="61.482"><stop offset="0" stop-color="#a79071"/><stop offset="1" stop-color="#6f5d45"/></linearGradient><radialGradient id="j" cx="7.496" cy="8.45" gradientTransform="matrix(0 .8 -1 0 18.7 -3.1)" gradientUnits="userSpaceOnUse" r="20" xlink:href="#e"/><linearGradient id="e"><stop offset="0" stop-color="#5f5f5f"/><stop offset=".262" stop-color="#4f4f4f"/><stop offset=".705" stop-color="#3b3b3b"/><stop offset="1" stop-color="#2b2b2b"/></linearGradient><linearGradient id="k" gradientTransform="matrix(.4 0 0 .3 .7 1)" gradientUnits="userSpaceOnUse" x1="24" x2="24" xlink:href="#d" y1="44" y2="3.899"/><linearGradient id="l" gradientTransform="matrix(.2 0 0 .3 2.2 1.9)" gradientUnits="userSpaceOnUse" x1="24" x2="24" y1="7.182" y2="40.818"><stop offset="0" stop-color="#fff"/><stop offset="0" stop-color="#fff" stop-opacity=".235"/><stop offset="1" stop-color="#fff" stop-opacity=".157"/><stop offset="1" stop-color="#fff" stop-opacity=".392"/></linearGradient><g stroke-linejoin="round"><path d="M13.49 2.304c-.095-.655-.035-1.17-.088-1.795H3.51l.057 1.98" fill="#e9e9e9" stroke="url(#f)" stroke-miterlimit="0" stroke-width="1.017"/><g stroke-linecap="round"><path d="M4.5 2.5H2.9c-.228 0-.4-.02-.4-.05V1.054C2.5.61 2.724.5 3.016.5H4.5" fill="#e9e9e9" stroke="url(#g)"/><path d="M3.51 2.51h9.98v12.98H3.51z" fill="url(#h)" stroke="url(#i)" stroke-miterlimit="0" stroke-width="1.019"/><path d="M4.5 2.5v13H2.9c-.228 0-.4-.138-.4-.317V2.5z" fill="url(#j)" stroke="url(#k)"/></g></g><path d="M3.5 3.5h9v11h-9z" fill="none" opacity=".5" stroke="url(#l)" stroke-linecap="round"/><path d="M11.22 8c-.125 0-.22.095-.22.22v.624c-.277.07-.526.186-.766.328L9.78 8.72c-.087-.09-.223-.09-.31 0l-.75.75c-.09.087-.09.223 0 .31l.452.454c-.142.24-.257.49-.328.766H8.22c-.125 0-.22.095-.22.22v1.06c0 .125.095.22.22.22h.624c.07.277.186.526.328.766l-.453.453c-.09.087-.09.223 0 .31l.75.75c.087.09.223.09.31 0l.454-.452c.24.142.49.257.766.328v.625c0 .125.095.22.22.22h1.06c.125 0 .22-.095.22-.22v-.624c.277-.07.526-.186.766-.328l.453.453c.087.09.223.09.31 0l.75-.75c.09-.087.09-.223 0-.31l-.452-.454c.142-.24.257-.49.328-.766h.625c.125 0 .22-.095.22-.22v-1.06c0-.125-.095-.22-.22-.22h-.624c-.07-.277-.186-.526-.328-.766l.453-.453c.09-.087.09-.223 0-.31l-.75-.75c-.087-.09-.223-.09-.31 0l-.454.452c-.24-.142-.49-.257-.766-.328V8.22c0-.125-.095-.22-.22-.22zm.53 2.75c.552 0 1 .448 1 1s-.448 1-1 1-1-.448-1-1 .448-1 1-1z" display="block" overflow="visible" fill="url(#m)" stroke="url(#n)" stroke-width=".527" stroke-linejoin="round" transform="matrix(1.1 -.4 .4 1.1 -6 4.3)"/><path d="M10.718 10.03c-1.375.5-2.087 2.027-1.587 3.402.5 1.375 2.027 2.087 3.402 1.587 1.375-.5 2.087-2.027 1.587-3.402-.5-1.375-2.027-2.087-3.402-1.587zm.42 1.152c.74-.27 1.56.113 1.83.855.27.74-.113 1.56-.855 1.83-.74.27-1.56-.112-1.83-.854-.27-.74.112-1.56.854-1.83z" opacity=".05"/><path d="M11.75 9.75c-1.103 0-2 .897-2 2s.897 2 2 2 2-.897 2-2-.897-2-2-2z" fill="none" stroke="url(#o)" stroke-width=".879" transform="matrix(1.1 -.4 .4 1.1 -6 4.3)"/></svg>
